storage/app/icons/tabler/filled/coin.svg

<!--
version: "2.39"
unicode: "fd08"
-->
<svg
  xmlns="http://www.w3.org/2000/svg"
  width="24"
  height="24"
  viewBox="0 0 24 24"
  fill="currentColor"
>
  <path d="M17 3.34a10 10 0 1 1 -15 8.66l.005 -.324a10 10 0 0 1 14.995 -8.336zm-5 2.66a1 1 0 0 0 -1 1a3 3 0 1 0 0 6v2a1.024 1.024 0 0 1 -.866 -.398l-.068 -.101a1 1 0 0 0 -1.732 .998a3 3 0 0 0 2.505 1.5h.161a1 1 0 0 0 .883 .994l.117 .007a1 1 0 0 0 1 -1l.176 -.005a3 3 0 0 0 -.176 -5.995v-2c.358 -.012 .671 .14 .866 .398l.068 .101a1 1 0 0 0 1.732 -.998a3 3 0 0 0 -2.505 -1.501h-.161a1 1 0 0 0 -1 -1zm1 7a1 1 0 0 1 0 2v-2zm-2 -4v2a1 1 0 0 1 0 -2z" />
</svg>

<svg xmlns="http://www.w3.org/2000/svg" width="24" height="24" fill="currentColor" viewBox="0 0 24 24"><path d="M17 3.34A10 10 0 1 1 2 12l.005-.324A10 10 0 0 1 17 3.34M12 6a1 1 0 0 0-1 1 3 3 0 1 0 0 6v2a1.02 1.02 0 0 1-.866-.398l-.068-.101a1 1 0 0 0-1.732.998 3 3 0 0 0 2.505 1.5H11a1 1 0 0 0 .883.994L12 18a1 1 0 0 0 1-1l.176-.005A3 3 0 0 0 13 11V9c.358-.012.671.14.866.398l.068.101a1 1 0 0 0 1.732-.998A3 3 0 0 0 13.161 7H13a1 1 0 0 0-1-1m1 7a1 1 0 0 1 0 2zm-2-4v2a1 1 0 0 1 0-2"/></svg>
